src/svg/twitter.svg

<?xml version="1.0" encoding="UTF-8" standalone="no"?>
<svg width="256px" height="209px" viewBox="0 0 256 209" version="1.1" xmlns="http://www.w3.org/2000/svg" xmlns:xlink="http://www.w3.org/1999/xlink" preserveAspectRatio="xMidYMid">
    <g>
        <path d="M256,25.4500259 C246.580841,29.6272672 236.458451,32.4504868 225.834156,33.7202333 C236.678503,27.2198053 245.00583,16.9269929 248.927437,4.66307685 C238.779765,10.6812633 227.539325,15.0523376 215.57599,17.408298 C205.994835,7.2006971 192.34506,0.822 177.239197,0.822 C148.232605,0.822 124.716076,24.3375931 124.716076,53.3423116 C124.716076,57.4586875 125.181462,61.4673784 126.076652,65.3112644 C82.4258385,63.1210453 43.7257252,42.211429 17.821398,10.4359288 C13.3005011,18.1929938 10.710443,27.2151234 10.710443,36.8402889 C10.710443,55.061526 19.9835254,71.1374907 34.0762135,80.5557137 C25.4660961,80.2832239 17.3681846,77.9207088 10.2862577,73.9869292 C10.2825122,74.2060448 10.2825122,74.4260967 10.2825122,74.647085 C10.2825122,100.094453 28.3867003,121.322443 52.413563,126.14673 C48.0059695,127.347184 43.3661509,127.988612 38.5755734,127.988612 C35.1914554,127.988612 31.9009766,127.659938 28.694773,127.046602 C35.3777973,147.913145 54.7742053,163.097665 77.7569918,163.52185 C59.7820257,177.607983 37.1354036,186.004604 12.5289147,186.004604 C8.28987161,186.004604 4.10888474,185.75646 0,185.271409 C23.2431033,200.173139 50.8507261,208.867532 80.5109185,208.867532 C177.116529,208.867532 229.943977,128.836982 229.943977,59.4326002 C229.943977,57.1552968 229.893412,54.8901664 229.792282,52.6381454 C240.053257,45.2331635 248.958338,35.9825545 256,25.4500259" fill="#55acee"></path>
    </g>
</svg>

<svg width="256" height="209" xmlns="http://www.w3.org/2000/svg" preserveAspectRatio="xMidYMid"><path d="M256 25.45c-9.42 4.177-19.542 7-30.166 8.27 10.845-6.5 19.172-16.793 23.093-29.057a105.183 105.183 0 01-33.351 12.745C205.995 7.201 192.346.822 177.239.822c-29.006 0-52.523 23.516-52.523 52.52 0 4.117.465 8.125 1.36 11.97-43.65-2.191-82.35-23.1-108.255-54.876-4.52 7.757-7.11 16.78-7.11 26.404 0 18.222 9.273 34.297 23.365 43.716a52.312 52.312 0 01-23.79-6.57c-.003.22-.003.44-.003.661 0 25.447 18.104 46.675 42.13 51.5a52.592 52.592 0 01-23.718.9c6.683 20.866 26.08 36.05 49.062 36.475-17.975 14.086-40.622 22.483-65.228 22.483-4.24 0-8.42-.249-12.529-.734 23.243 14.902 50.85 23.597 80.51 23.597 96.607 0 149.434-80.031 149.434-149.435 0-2.278-.05-4.543-.152-6.795A106.748 106.748 0 00256 25.45" fill="#55acee"/></svg>
